X: 29171
T: New Bob, The
R: reel
M: 4/4
K: Bminor
Bcde f2 ea|cAeA aAec|
Bcde f2 ea|cAec B2f2:|
|:B2 b^a b2 bf|abaf deed|
efab faea|cAec B2f2:|

